X: 1
T:Old Sir Simon the King
M:9/8
O:England
A:North-West
R:Slip jig
K:DMix
D|\
E>FG GAG G2D| E>FG GAB c2c| ECC C2D EFG| A2G FGE D2::
D|\
G>AG GBc d2D| G>AG GAB c2c| ECC C2D EFG| A2G FGE D2::
e|\
d2c B2A G2e| dec BcA GAB| cCC C2D EFG| A2G FGE D2:|
